X:1
T:Title
%%score { ( 1 3 ) | 2 }
L:1/8
Q:1/4=104
M:3/4
K:A
V:1 treble nm="Grand Piano"
V:3 treble 
V:2 bass 
V:1
 [ce]2 [Ac][FA] [DF][FA] | [CE]2 [EA]2 [EA][GB] | c2 e2 B>c | [CA]4 z2 | B2 ^AB cB | [CA]2 e4 | %6
w: H.~Hillard * * * *||||||
 B2 ^AB cB | [CA]2 [Ee]4 | [FA]2 [FA][FA] [DF][Fd] | [Ec]2 e2 AB | c2 c2 B2 | [A,CA]4 z E | %12
w: ||||||
 B2 B2 z E | c2 [Ec]2 z [Ec] | [Ge]2 [F^d]2 [Ec][Fd] | [Ge]2 [Ge]2 z E | B2 B2 z E | %17
w: |||||
 [Ec]2 [Ec]2 z [Ec] | .e2 .c2 z2 | [ce]2 [Ac][FA] [DF][FA] | [CE]2 [EA]2 [EA][GB] | c2 e2 B>c | %22
w: |||||
 [CA]4 z2 | B2 ^AB cB | [CA]2 e4 | B2 ^AB cB | [CA]2 [Ee]4 | [FA]2 [FA][FA] [DF][Fd] | %28
w: ||||||
 [Ec]2 e2 AB | [CA]4 z2 | [Ge]6 | [Ec]2 z2 z2 | [Ge]6 |[M:9/8] A8- A |] %34
w: ||||||
V:2
 [A,,A,]2 [A,,A,][A,,A,] [A,,A,][A,,A,] | [A,,A,]2 [C,A,]2 [C,A,][E,B,] | %2
 [A,CA]2 [CEA]2[K:bass] [E,G,D]2 | [A,,A,]4 z2 | [E,G,D]2 [E,G,C][E,G,D] [E,G,E][E,G,D] | %5
 [A,,A,]2 [A,CE]4 | [E,G,D]2 [E,G,C][E,G,D] [E,G,E][E,G,D] | [A,,A,]2 [A,C]4 | %8
 [D,D]2 [D,D][D,D] [D,A,][D,A,] | [A,,A,]2 [A,CE]2 [F,A,^D][F,A,D] | [E,A,E]2 [E,A,E]2 [E,G,D]2 | %11
 A,,4 z E, | [E,G,E]2 [E,G,E]2 z [E,G,] | [A,E]2 [A,,A,]2 z [A,,A,] | %14
 [B,,B,]2 [B,,B,]2 [B,,B,][B,,B,] | [E,B,]2 [E,B,]2 z E, | [E,G,D]2 [E,G,D]2 z [E,G,] | %17
 [A,,A,]2 [A,,A,]2 z [A,,A,] | [B,,F,]2 [B,,F,]2 [B,,B,][B,,B,] | %19
 [A,,A,]2 [A,,A,][A,,A,] [A,,A,][A,,A,] | [A,,A,]2 [C,A,]2 [C,A,][E,B,] | %21
 [A,CA]2 [CEA]2[K:bass] [E,G,D]2 | [A,,A,]4 z2 | [E,G,D]2 [E,G,C][E,G,D] [E,G,E][E,G,D] | %24
 [A,,A,]2 [A,CE]4 | [E,G,D]2 [E,G,C][E,G,D] [E,G,E][E,G,D] | [A,,A,]2 [A,C]4 | %27
 [D,D]2 [D,D][D,D] [D,A,][D,A,] | [A,,A,]2 [A,CE]2 [F,A,^D][F,A,D] | [A,,A,]4 z2 | [E,B,]6 | %31
 [A,C]2 z2 z2 | [E,D]6 |[M:9/8] [A,C]8- [A,C] |] %34
V:3
 x6 | x6 | x6 | x6 | x6 | x6 | x6 | x6 | x6 | x6 | x6 | x6 | x6 | x6 | x6 | x6 | x6 | x6 | %18
 A-[A^d] A-[AB] [Ac][Ad] | x6 | x6 | x6 | x6 | x6 | x6 | x6 | x6 | x6 | x6 | x6 | x6 | x6 | x6 | %33
[M:9/8] x9 |] %34

